svg/fluentui-system-icons/ic_fluent_space_3d_24_regular.svg

<svg width="24" height="24" viewBox="0 0 24 24" fill="none" xmlns="http://www.w3.org/2000/svg">
<path d="M3 6.25C3 4.45507 4.45507 3 6.25 3H17.75C19.5449 3 21 4.45507 21 6.25V17.75C21 19.5449 19.5449 21 17.75 21H6.25C4.45507 21 3 19.5449 3 17.75V6.25ZM6.25 4.5C5.2835 4.5 4.5 5.2835 4.5 6.25V11H19.5V6.25C19.5 5.2835 18.7165 4.5 17.75 4.5H6.25ZM4.5 14.0834L5.68755 12.5H4.5V14.0834ZM5.68755 15H8.97693L9.60193 12.5H7.56255L5.68755 15ZM4.5 16.5V17.75C4.5 18.7165 5.2835 19.5 6.25 19.5H7.85193L8.60193 16.5H4.5ZM10.1481 16.5L9.3981 19.5H15.058L14.1205 16.5H10.1481ZM15.692 16.5L16.6295 19.5H17.75C18.7165 19.5 19.5 18.7165 19.5 17.75V16.5H15.692ZM18.3125 15L16.4375 12.5H14.442L15.2232 15H18.3125ZM13.6517 15L12.8705 12.5H11.1481L10.5231 15H13.6517ZM19.5 14.0834V12.5H18.3125L19.5 14.0834Z" fill="#212121"/>
</svg>

<svg xmlns="http://www.w3.org/2000/svg" width="24" height="24"><path d="M3 6.25A3.25 3.25 0 0 1 6.25 3h11.5A3.25 3.25 0 0 1 21 6.25v11.5A3.25 3.25 0 0 1 17.75 21H6.25A3.25 3.25 0 0 1 3 17.75V6.25ZM6.25 4.5A1.75 1.75 0 0 0 4.5 6.25V11h15V6.25a1.75 1.75 0 0 0-1.75-1.75H6.25ZM4.5 14.083 5.688 12.5H4.5v1.583ZM5.688 15h3.289l.625-2.5h-2.04L5.689 15ZM4.5 16.5v1.25c0 .966.784 1.75 1.75 1.75h1.602l.75-3H4.5Zm5.648 0-.75 3h5.66l-.938-3h-3.972Zm5.544 0 .938 3h1.12a1.75 1.75 0 0 0 1.75-1.75V16.5h-3.808Zm2.62-1.5-1.875-2.5h-1.995l.781 2.5h3.09Zm-4.66 0-.781-2.5h-1.723l-.625 2.5h3.129Zm5.848-.917V12.5h-1.188l1.188 1.583Z"/></svg>
